X:1
T:Fly Singing Bird
T:Fly Singing Bird
T:Edward Elgar (1857-1934)
T:C. Alice Elgar (1848-1920)
T:Set by C. Höcker - Nov. 2016 - CC0
T:Set by C. Höcker - Nov. 2016 - CC0
T:Set by C. Höcker - Nov. 2016 - CC0
T:Set by C. Höcker - Nov. 2016 - CC0
T:Set by C. Höcker - Nov. 2016 - CC0
T:Set by C. Höcker - Nov. 2016 - CC0
T:Set by C. Höcker - Nov. 2016 - CC0
T:Set by C. Höcker - Nov. 2016 - CC0
T:Set by C. Höcker - Nov. 2016 - CC0
T:Set by C. Höcker - Nov. 2016 - CC0
T:Set by C. Höcker - Nov. 2016 - CC0
C:Edward Elgar
Z:Set by C. Höcker - Nov. 2016 - CC0
%%score [ 1 2 3 ] { ( 4 7 ) | ( 5 6 ) }
L:1/8
Q:3/8=88
M:6/8
K:G
V:1 treble nm="Soprano 1" snm="S1"
V:2 treble nm="Soprano 2" snm="S2"
V:3 treble nm="Alto" snm="A"
V:4 treble nm="Piano" snm="P"
V:7 treble 
V:5 bass 
V:6 bass 
V:1
"^Allegro" z6 | z6 | z6 | z6 | z6 | z6 | z6 | z6 | z6 | z6 |!mf!"^A" !^!d3 c B A | d3- d2 z | %12
w: ||||||||||Fly, sing- ing bird,|fly, _|
 !^!d3 c B A | d3- d2 z |!p! B2 B ^A A A | B B c =A3 |"^cres."!<(! c2 c B B B | c c d B3!<)! | %18
w: fly, sing- ing bird,|fly, _|From the wood ~where lies|shel- ter'd ~thy nest,|From the tree ~whence ~thou|pour- est thy song,|
!f! d2 d ^c c c |!<(! d3 e2 e!<)! |!ff! f6- | f6- |!>(! f6- | f3- f2!>)! z | %24
w: From the tree ~whence thou|pour- est thy|song,|_|||
!p!"^dolce""^B" (e3 B2) B | A3 d2 B | G3 A2 B | A3- A2 z | (d3 A2) A | G3 ^c2 A | %30
w: Fly _ a-|way far a-|way to the|west, _|Fly _ a-|way, far a-|
!<(! F3 ^G2 =A!<)! |!mp!!>(! B3 ^c2 c!>)! |!pp!"^C" ^c6- | c3- c2 z | !tenuto!^c3 !tenuto!c3 | %35
w: way; far a-|way to the|west,|_ _|Tell my|
 ^c3 B2 A | (d6 | D3-) D2 z |"^cres."!p!!<(! !tenuto!d3 !tenuto!d3 | d3 c2 B | ^A3 =G3 | %41
w: love that I|wait,|_ _|that I|wait, Ah! too|long, too|
 F3- F2 F!<)! |!f!!>(! (f3 e3) | d3- d2 D!>)! |!p!"^D" D6- | D6- | D2 z z3 | z6 | z6 | z6 | z6 | %51
w: long _ and|lone- *|ly, _ I|sigh.|_||||||
 z6 |!f!"^E" !^!d3 c B A | d3- d2 z | !^!d3 c B A |!>(! d3- d2!>)! z |!p! B2 B ^A A A | B B c =A3 | %58
w: |Fly, sing- ing bird,|fly, _|fly, sing- ing bird,|fly, *|O'er the blos- som- ing|mea- dows, where ~grow|
 c2 c!<(! B B B | c c d B3!<)! |!f! d2 d ^c c c |!<(! d3 d2 e!<)! |!ff! f6- | f6- |!>(! f6- | %65
w: Yel- low cow- slips ~and|daf- fo- dils pale,|yel- low cow- slips and|daf- fo- dils|pale.|||
 f3- f2!>)! z |!p!"^dolce""^F" (e3 B2) B | A3 d2 B | G2 G (A2 B) | A3- A2 z | (d3 A2) A | %71
w: |Say _ I|wait where a-|ne- mo- nes _|blow, _|say _ I|
 G3 ^c2 A |!<(! F3 ^G2 =A!<)! |!mp!!>(! B2 B ^c3!>)! |!pp!"^G" ^c6- | c3- c2 z | ^c3 c3 | %77
w: wait, say I|wait, where a-|ne- mo- nes|blow,|_ _|wea- ry|
 ^c3 B2 A | (d6 | D3-) D2 z |"^cres."!p!!<(! !tenuto!d3 !tenuto!d3 | d3 c2 B | (^A3 =G3 | %83
w: wait, wea- ry|wait,|_ _|till with|wai- ting I|fail, _|
 F3-) F2 F | (f3 e3!<)! |"^dim."!mf! d3)!>(! c2 c | B3- B2 A | (G3 =F2) F |"^H" E2 z z3!>)! | %89
w: _ _ And|fail- *|* ing I|sigh, _ and|fail- ing I|sigh|
!pp! G3 =F E D | G6- | G6- | G2 z z3 | z6 | z6 | z6 | z6 | z6 | z6 |"^I" z6 |"^J" z6 | z6 | z6 | %103
w: Fly, sing- ing bird,|fly,|_||||||||||||
 z6 | z6 | z6 | z6 | z3 z2!mf! B | (e3 B2) B | A3 d2 B | G3 A2 B | A3- A2 z | z6 | z6 | z6 | z6 | %116
w: ||||And|swift, _ and|swift as my|fol- low- ing|thought, _|||||
!pp!"^K" G3 G2 G | (G3 F2) E | (G6 | E3-) E2 z | z6 | z6 | c3"^cres."!<(! c3 | c3 _B2 A | %124
w: Come, ~or ~I|die, _ I|die,|_ _|||On- ward|speed, and still|
 (^G3 =F3 | E3-) E2 z | (e3 d2)!<(! c | ^f3 e2 d!<)!!<)! |!ff!"^L" (g3 f2) d | (e3 d2) F | %130
w: sing, _|_ _|On- * ward|speed, and still|sing, _ still|sing, _ and|
!<(! (G3 d3)!<)! | (d2 c) B2 z |!>(! e6- | (e3 d3)!>)! |!p! (^c3 d2) B | %135
w: swift _|fly- * ing,|sing,|_ _|Come, _ oh|
"^dim." ^A3!>(! B2!>)!!pp! G | D6- | D6- | D6- |"^dim." D6- | D6- | D6- | D2 z z3 | !fermata!z6 |] %144
w: come, or I|die!|_|||||||
V:2
 z6 | z6 | z6 | z6 | z6 | z6 | z6 | z6 | z6 | z6 |!mf! !^!B3 A G F | ((G3 D2)) z | !^!B3 A G F | %13
w: ||||||||||Fly, sing- ing bird,|fly, _|fly, sing- ing bird,|
 (G3 D2) z |!p! G2 G G G G | G G G G F E |"^cres."!<(! E2 E ^D D D | E E F G3!<)! | %18
w: fly, _|From the wood where lies|shel- ter'd thy nest, From the|tree, the tree whence thou|pour- est thy song,|
!f! B2 B ^A A A |!<(! B3 B2 B!<)! |!ff!!ff! [Ff]6- | [Ff]6- |!>(! [Ff]6- | [Ff]3- [Ff]2!>)!!p! z | %24
w: from the tree whence thou|pour- est thy|song,|_|||
 z6 | z6 | z6 | z6 | z6 | z6 | z6 | z6 |!pp! A3 A3 | A3 ^G2 F | (A6 | F3-) F2 z | z6 | z6 | z6 | %39
w: ||||||||Tell my|love that I|wait,|_ _||||
 z6 |"^cres."!mf!!<(! !tenuto!e3 !tenuto!e3 | (e3 d2) ^c!<)! |!f!!>(! (B2 F) F3- | F3- F2 D!>)! | %44
w: |Ah! too|long _ and|lone- * ly;|_ _ I|
!p! D6- | D6- | D2 z z3 | z6 | z6 | z6 | z6 | z6 |!f! !^!B3 A G F | (G3 D2) z | !^!B3 A G F | %55
w: sigh|_|||||||Fly, sing- ing bird,|fly, _|fly, sing- ing bird,|
!>(! (G3 D2)!>)! z |!p! G2 G G G G | G G G G F E | E2 E!<(! ^D D D | E E F G3!<)! | %60
w: fly, _|O'er the blos- som- ing|mea- dows, where grow Yel- low,|yel- low cow- slips and|daf- fo- dils pale,|
!f! B2 B ^A A A |!<(! B3 B2 B!<)! |!ff!!ff! [Ff]6- | [Ff]6- |!>(! [Ff]6- | [Ff]3- [Ff]2!>)! z | %66
w: yel- low cow- slips and|daf- fo- dils|pale|_|||
 z6 | z6 | z6 | z6 | z6 | z6 | z6 | z6 |!pp! !tenuto!A3 !tenuto!A3 | A3 ^G2 F | ((A6 | F3-)) F2 z | %78
w: ||||||||Wea- ry|wait, wea- ry|wait|_ _|
 z6 | z6 | z6 | z6 |"^cres."!mf!!<(! !tenuto!e3 !tenuto!e3 | e3 d2 ^c | (B2 F) F3!<)! | %85
w: ||||till with|wait- ing, I|fail, _ And|
"^dim."!mf! F3!>(! F3 | (G3 ^D3) | E3 G3 | G6-!>)! |!pp! G2 z z3 | z6 | z6 | z6 | z6 | z6 | z6 | %96
w: fail- ing,|fail- *|ing, I|sigh|_|||||||
 z6 | z6 | z6 | z6 |!p! A3 B3 | (^c3 d2) _B | A6- | A2 z z3 | A3 B3 | ^c3 d2 =c | B6- | B2 z z3 | %108
w: ||||Leave the|cra- * dling|boughs,|_|spread thy|wing, spread thy|wing,|_|
 z6 | z6 | z6 | z6 | z6 | z6 | z6 | z6 | z6 | z6 |!pp! B3 B2 B | (B3 A2) G | (c6 | C3-) C2 z | z6 | %123
w: ||||||||||Come, or I|die, _ I|die,|_ _||
 z6 |!p!!<(! d3 d3 | d3 c2 B | A3 A2!<(! c | c3 c2 c!<)!!<)! |!ff! (B3 c2) c | (B3 A2) F | %130
w: |On- ward|speed, and swift|fly- ing, swift|fly- ing, still|sing, _ still|sing _ and|
!<(! (G3 d3)!<)! | (d2 c) B2 z |!>(! B6- | B6!>)! |!p! B3- B2 G |"^dim." G3!>(! G2!>)!!pp! E | %136
w: swift _|fly- * ing,|sing,|_|Come, _ oh|come, or I|
 D6- | D6- | D6- |"^dim." D6- | D6- | D6- | D2 z z3 | !fermata!z6 |] %144
w: die!|_|||||||
V:3
 z6 | z6 | z6 | z6 | z6 | z6 | z6 | z6 | z6 | z6 |!mf! !^!D3 D D D | D3- D2 z | !^!D3 D D D | %13
w: ||||||||||Fly, sing- ing bird,|fly, _|fly, sing- ing bird,|
 D3- D2 z |!p! D2 D ^C C C | D D E E D =C |"^cres."!<(! G2 G G G G | G G A B3!<)! |!f! G2 G G G G | %19
w: fly, _|From the wood where lies|shel- ter'd thy nest, From the|tree, the tree whence thou|pour- est thy song,|from the tree whence thou|
!<(! G3 G2 G!<)! |!ff! F6- | F6- |!>(! F6- | F3- F2!>)!!p! z | z6 | z6 | z6 | z6 | z6 | z6 | z6 | %31
w: pour- est thy|song,|_||||||||||
 z6 |!pp! ^C3 C3 | ^C3 B,2 A, | (^C6 | A,3-) A,2 z |"^cres."!<(! !tenuto!A3 !tenuto!A3 | A3 G2 F | %38
w: |Tell me|love that I|wait,|_ _|tell my|love that I|
 (=F6 | E3-) E2 z | z6 | F3 F3!<)! |!f!!>(! (F3 ^A,2) A, | (B,3 D2) D!>)! |!p! D6- | D6- | %46
w: wait,|_ _||Ah! too|long, _ I|wait _ and|sigh|_|
 D2 z z3 | z6 | z6 | z6 | z6 | z6 |!f! !^!D3 D D D | D3- D2 z | !^!D3 D D D |!>(! D6-!>)! | %56
w: ||||||Fly, sing- ing bird,|fly, _|fly, sing- ing bird,|fly|
 D!p! D D ^C C C | D D E E D =C | G2 G!<(! G G G | G G A B3!<)! |!f! G2 G G G G |!<(! G3 G2 G!<)! | %62
w: * O'er the blos- som- ing|mea- dows, where grow Yel- low,|yel- low cow- slips and|daf- fo- dils pale,|yel- low cow- slips and|daf- fo- dils|
!ff! F6- | F6- |!>(! F6- | F3- F2!>)! z | z6 | z6 | z6 | z6 | z6 | z6 | z6 | z6 | %74
w: pale|_|||||||||||
!pp! !tenuto!^C3 !tenuto!C3 | ^C3 B,2 A, | (^C6 | A,3-) A,2 z |"^cres."!<(! !tenuto!A3 !tenuto!A3 | %79
w: Wea- ry|wait, wea- ry|wait,|_ _|till with|
 A3 G2 F | (=F6 | E3-) E2 z | z6 | F3 F3 | F3 ^A,2 A,!<)! |"^dim."!mf! (B,3!>(! D2) D | D3 B,3 | %87
w: wait- ing, I|fail|_ ,||till with|wait- ing, I|fail, _ And|fail- *|
 B,3 (=C2 D) | E2 z4!>)! |!pp! E3 D C B, | C2 z z3 | z6 |"^tranquillo" G3 A3 | B3 c2 A | G6- | %95
w: ing, I _|sigh.|Fly, sing- ing bird,|fly,||Leave thy|nest 'midst the|wood,|
 G2 z z3 | G3 A3 | B3 c2 B | A6- | A2 z z3 | z6 | z6 | z6 | z6 | z6 | z6 | z6 | z6 | z6 | z6 | z6 | %111
w: _|'midst the|wood, lone, un-|sought,|_||||||||||||
 z6 |!p! (B3 F2) F | E3 A2 F | ^D3"^dim."!>(! E2 F | G3 A2 B!>)! |!pp! B6- | B2 z z2 z | z6 | z6 | %120
w: |On- * ward|speed, on- ward|speed, and swift-|fly- ing, still|sing,|_|||
!pp! G3 G3 | G3 =F2 E | (_E6 | D3-) D2 z | z6 |!mp!!<(! E3 E3 | E3 E2!<(! A | A3 F2 F!<)!!<)! | %128
w: On- ward|speed, and still|sing,|_ _||On- ward|speed, and swift|fly- ing, still|
!ff! (G3 A2) F | (G3 F2) F |!<(! (G3 d3)!<)! | ((d2 c)) B2 z |!>(! G6- | G6!>)! |!p! G3- G2 D | %135
w: sing, _ still|sing, _ and|swift _|fly- * ing,|sing,|_|come, _ oh|
"^dim." D3!>(! D2!>)!!pp! E | D6- | D6- | D6- |"^dim." D6- | D6- | D6- | D2 z z3 | !fermata!z6 |] %144
w: come, or I|die!|_|||||||
V:4
!f! [B,D] z/ [B,D]/[B,D]"_cres."!<(! [B,D][B,D][B,D] | [B,D][B,D][B,D] [CD][CD][CD] | %2
 [B,D] z/ [B,D]/[B,D] [CD][CD][CD] | [B,D]!<)! z/ [B,D]/[B,D] [A,D][A,D][A,D] | %4
 [B,D]!<(![B,D][B,D] [A,DA][A,DA][A,DA] | [B,EG][B,EG][B,EG] [B,FB][B,FB][B,FB]!<)! | %6
 [Ece]3 c>BA- | AGF G2 D | E3-"_dim."!>(! E3- | E2!>)! z z3 | %10
!mf! [B,D] z/ [B,D]/[B,D] [CD][CD][CD] | [B,D] z/ [B,D]/[B,D] [CD][CD][CD] | %12
 [B,D] z/ [B,D]/[B,D] [CD][CD][CD] |!>(! [B,D] z/ [B,D]/[B,D] [CD][CD][CD]!>)! | %14
!p! [B,D]2 z !arpeggio!.[^Ae^a] z z | !arpeggio!.[Bdb] z z !arpeggio!.[Aega] z2 | %16
!<(! !arpeggio!.[cgc'] z z !arpeggio!.[Bgb] z2 | !arpeggio!.[cgc'] z z !arpeggio!.[Bgb] z2!<)! | %18
!f! !arpeggio!.[dgd'] z z !arpeggio!.[^cg^c'] z2 | %19
!<(! !arpeggio!.[dgd'] z z !arpeggio!.[ege'] z2!<)! |!ff! !^![Fdf]3 ([^ce]>[Bd][^Ac]) | %21
 !^![Fd]3 ([E^c]>[DB][^CA]) |!>(! ([DB]3 [B,^G]3 | [^C^A]3-) [CA]2 z!>)! |!p! z (B,E BEB, | %25
 ^CA,E DA,F | B,G,D ^CG,D | EA,A E^CA) | z (A,D ADA, | B,G,D ^CG,C |!<(! ^A,F,^C B,F,F!<)! | %31
!mp!!>(! B,F,F ^EB,^G)!>)! |!pp! !tenuto![^CA]3 !tenuto![CA]3 | ([^CA]3 [B,^G]2 [A,F]) | [^CA]6 | %35
 [A,F]6 |!<(! !tenuto![A,DA]3 !tenuto![A,DA]3 | ([A,DA]3 G2 F) | [^G,D=F]3 [A,DF]3 | %39
 [B,DE]3 ([^G,E^G]3 | [^A,E^A]3 [B,=GB]3 | [^CF^c]3 [Dd]2) [Cc]!<)! |!f!!>(! ([FBf]3 [E^Ae]3 | %43
 [DBd]3 [=CF=c]3!>)! |!pp! [B,GB]) z/ [B,D]/[B,D] [CD][CD][CD] | %45
 [B,D] z/ [B,D]/[B,D] [A,D][A,D][A,D] | [B,DG][B,DG][B,DG]!<(! [A,DA][A,DA][A,DA] | %47
 [B,EG][B,EG][B,EG] [B,FB][B,FB][B,FB]!<)! | !^![Ece]3 c>BA- | AGF G2 D | E3-!>(! E3- | %51
 E2!>)!!mp! z4 |!f! [B,D] z/ [B,D]/[B,D] [CD][CD][CD] | [B,D] z/ [B,D]/[B,D] [CD][CD][CD] | %54
 [B,D] z/ [B,D]/[B,D] [CD][CD][CD] |!>(! [B,D] z/ [B,D]/[B,D] [CD][CD][CD]!>)! | %56
!p! [B,D]2 z !arpeggio!.[^Ae^a] z z | !arpeggio!.[Bdb] z z !arpeggio!.[Aega] z2 | %58
 !arpeggio!.[cgc'] z z"_cres."!<(! !arpeggio!.[Bgb] z2 | %59
 !arpeggio!.[cgc'] z z !arpeggio!.[Bgb] z2!<)! |!f! !arpeggio!.[dgd'] z z !arpeggio!.[^cg^c'] z2 | %61
!<(! !arpeggio!.[dgd'] z z !arpeggio!.[ege'] z2!<)! |!ff! !^![Fdf]3 [^ce]>[Bd][^Ac] | %63
 !^![Fd]3 [E^c]>[DB][^C^A] |!>(! [DB]3 [B,^G]3 | [^C^A]3- [CA]2 z!>)! |!p! z (B,E BEB, | %67
 ^CA,E DA,F | B,G,D ^CG,D | EA,A E^CA) | z (A,D ADA, | B,G,D ^CG,C |!<(! ^A,F,^C B,F,F!<)! | %73
!mp!!>(! B,F,F ^EB,^G)!>)! |!pp! !tenuto![^CA]3 !tenuto![CA]3 | ([^CA]3 [B,^G]2 [A,F]) | [^CA]6 | %77
 [A,F]6 |!<(! !tenuto![A,DA]3 !tenuto![A,DA]3 | (A3 G2 F) | [^G,D=F]3 [A,DF]3 | %81
 [B,DE]3 ([^G,E^G]3 | [^A,E^A]3 [B,=GB]3 | [^CF^c]3 [D^Ad]2 [Cc]) | ([FBf]3 [E^Ae]3!<)! | %85
"_dim."!mf!!>(! [DBd]3 [=CF=c]3) | (B3- B2 A | [B,EG]3 [=FG]3)!>)! |!pp! [EG]3 [G,D=FG]3 | %89
 [EG]3 [G,D=FG]3 | ([CEG]3 [CEG]3 | [CEG]3 [CEG]3) | !arpeggio![CEG]3 !arpeggio![CEA]3 | %93
 !arpeggio!B3 !arpeggio!c2 A | !tenuto![D=FG]3 !tenuto![G,DFG]3 | %95
 !tenuto![G,CEG]3 !tenuto![G,D=FG]3 | !arpeggio![CEG]3 !arpeggio![CEA]3 | %97
 !arpeggio!B3!<(! !arpeggio!c2 B!<)! |!mp! !tenuto![EGA]3 !tenuto![A,EGA]3 | %99
!>(! !tenuto![A,=FA]3 !tenuto![A,EGA]3!>)! |!p! !arpeggio![D=FA]3 !arpeggio![DFB]3 | %101
 !arpeggio!^c3 !arpeggio!d2 _B | !tenuto![EGA]3 !tenuto![A,EGA]3 | %103
 !tenuto![A,D=FA]3 !tenuto![A,EGA]3 | !arpeggio![D=FA]3 !arpeggio![DFB]3 | %105
 !arpeggio!^c3!<(! !arpeggio!d2 =c | !tenuto![^FAB]3 !tenuto![B,FAB]3 | %107
 !tenuto![B,EGB]3 !tenuto![B,^DB]3!<)! |!mf! z B,E BEB, | ^CA,E DA,F | B,G,D ^CG,D | %111
!<(! EA,A!<)!!f!!>(! FA,E!>)! |!p! ^DB,D FB,F | EB,E AEF | ^DB,D!>(! EB,[DF] | G3 A2 [^DB]!>)! | %116
!pp! [EG]3 !tenuto![B,G]3 | [B,G]3 [A,F]2 [G,E] | [B,G]6 | [G,E]6 | %120
 !tenuto![G,CG]3 !tenuto![G,CG]3 | ([CG]3 =F2 E) | [F,C_E]3 [G,CE]3 | [A,CD]3 [F,DF]3 | %124
!<(! ([^G,D^G]3 [A,=FA]3 | [B,EB]3 [C^Gc]2 [B,B]) | ([EAe]3 d2 c) | ([FAce]3 e2 d)!<)! | %128
!ff! [GBg]>[B,D][B,D] [CD][CD][CD] | [B,D] z/ [B,D]/[B,D] [CD][CD][CD] | %130
 [B,DG][B,DG][B,DG] [A,DA][A,DA][A,DA] | [G,DG][G,DG][G,DG] [G,B,G] z/ [G,B,G]/[G,B,G] | %132
 [G,B,EG]2 z4 | z6 | z6 | z6 | z6 |!pp! .[Bdg]2 z .[Acf]2 z | .[GBe]2 z .[FAd]2 z | z6 | %140
 (G>AB d3) |!>(! z6 | (e3- e>ga | b2)!>)!!ppp! z !fermata!z2 z |] %144
V:5
 D, z/ D,/D,!<(! D,D,D, | D,D,D, [D,F,]D,D, | D, z/ D,/D, D,D,D, | D,!<)! z/ D,/D, D,D,D, | %4
 [G,,G,]2 z [F,,F,]2 z | [E,,E,]2 z [D,,D,]2 z | [C,,C,]3- [C,,C,]2 [C,,C,]- | %7
 [C,,C,][B,,,B,,][A,,,A,,] [B,,,B,,]2 [B,,,B,,]- | [B,,,B,,][A,,,A,,][^G,,,^G,,] [C,,A,,]3 | %9
 [D,,D,]6 | D, z/ D,/D, D,D,D, | D, z/ D,/D, D,D,D, | D, z/ D,/D, D,D,D, | D, z/ D,/D, D,D,D, | %14
 [G,,D,]2 z !arpeggio!.[G,^CG] z z | !arpeggio!.[G,DG] z z !arpeggio!.[G,EG] z2 | %16
 !arpeggio!.[G,EG] z z !arpeggio!.[G,^DG] z2 | !arpeggio!.[G,EG] z z !arpeggio!.[G,DG] z2 | %18
 !arpeggio!.[G,DG] z z !arpeggio!.[G,E^A] z2 | !arpeggio!.[G,DB] z z !arpeggio!.[G,EB] z2 | %20
 [F,,,F,,]6 | [F,,,F,,]6 | [F,,,F,,]6 | F,,, z F,, F,3 | G,6 | (G,3 F,3) | (F,3 E,2 D,) | %27
 (^C,3 A,,2 G,,) | F,,6 | ([F,,F,]3 [E,,E,]3) | ([E,,E,]3 [D,,D,]3) | ([D,,D,]3 [^C,,^C,]3) | %32
 [F,,^C,]6 | [F,,^C,]6 | [F,,^C,]3 [F,,C,]3 | [F,,^C,]3 [F,,C,]3 | [F,,F,]3 [F,,F,]3 | %37
 ([F,,F,]3 [E,,E,]2 [D,,D,]) | [B,,,B,,]3 [A,,,A,,]3 | [^G,,,^G,,]3 [E,,E,]2 [D,,D,] | %40
 [^C,,^C,]3 [B,,,B,,]3 | [^A,,,^A,,]3 [F,,F,]2 [E,,E,] | [D,,D,]3 [^C,,^C,]3 | %43
 [B,,,B,,]3 [=A,,,=A,,]3 | x3 D,D,D, | D, z/ D,/D, D,D,D, | [G,,G,]2 z [F,,F,]2 z | %47
 [E,,E,]2 z [D,,D,]2 z | [C,,C,]3- [C,,C,]2 [C,,C,]- | %49
 [C,,C,][B,,,B,,][A,,,A,,] [B,,,B,,]2 [B,,,B,,]- | [B,,,B,,][A,,,A,,][^G,,,^G,,] [A,,,A,,]3 | %51
 [D,,D,]6 | D, z/ D,/D, D,D,D, | D, z/ D,/D, D,D,D, | D, z/ D,/D, D,D,D, | D, z/ D,/D, D,D,D, | %56
 [G,,,G,,]2 z !arpeggio!.[G,^CG] z z | !arpeggio!.[G,DG] z z !arpeggio!.[G,EG] z2 | %58
 !arpeggio!.[G,EG] z z !arpeggio!.[G,^DG] z2 | !arpeggio!.[G,EG] z z !arpeggio!.[G,DG] z2 | %60
 !arpeggio!.[G,DG] z z !arpeggio!.[G,E^A] z2 | !arpeggio!.[G,DB] z z !arpeggio!.[G,EB] z2 | %62
 [F,,,F,,]6 | [F,,,F,,]6 | [F,,,F,,]6 | F,,, z F,, (F,3 | G,6) | (G,3 F,3) | (F,3 E,2 D,) | %69
 (^C,3 A,,2 G,,) | F,,6 | ([F,,F,]3 [E,,E,]3) | ([E,,E,]3 [D,,D,]3) | ([D,,D,]3 [^C,,^C,]3) | %74
 [F,,^C,]6 | [F,,^C,]6 | [F,,^C,]3 [F,,C,]3 | [F,,^C,]3 [F,,C,]3 |"^cres." [F,,F,]3 [F,,F,]3 | %79
 ([F,,F,]3 [E,,E,]2 [D,,D,]) | ([B,,,B,,]3 [A,,,A,,]3 | [^G,,,^G,,]3) ([E,,E,]2 [D,,D,]) | %82
 ([^C,,^C,]3 [B,,,B,,]3 | [^A,,,^A,,]3) ([F,,F,]2 [E,,E,]) | ([D,,D,]3 [^C,,^C,]3 | %85
 [B,,,B,,]3 A,,3) | ([G,,G,]3 [F,,F,]3 | [E,,E,]3 [D,,D,]3) | [C,,G,,]6- | [C,,G,,]6 | %90
"^dim." [C,,G,,]6- | [C,,G,,]6 |"^tranquillo" [C,,G,,]6 | [C,,G,,]6 | [C,,G,,]6 | [C,,G,,]6 | %96
 [C,,G,,]6 | [C,,G,,]3 [C,,C,]3 | [^C,,^C,]3 [A,,,A,,]3 | [A,,,A,,]3 [A,,,A,,]3 | [D,,A,,]6 | %101
 [D,,A,,]6 | [D,,A,,]6 | [D,,A,,]6 | [D,,A,,]6 | [D,,A,,]3 [D,,D,]3 | [^D,,^D,]3 [B,,,B,,]3 | %107
 B,,3 [A,,A,]3 |{/G,,} G,6 | G,3 F,3 | F,3 E,2 D, | ^C,3 =C,3 | F,3 A,3 | G,3 C2 A, | %114
 F,3"^dim." G,2 A, | G,3 F,3 | [E,,B,,E,]6 | [E,,B,,]6 | [E,,B,,]3 [E,,B,,]3 | %119
 [E,,B,,]3 [E,,B,,]3 | [E,,E,]3 [E,,E,]3 | ([E,,E,]3 [D,,D,]2 [C,,C,]) | ([A,,,A,,]3 [G,,,G,,]3 | %123
 [F,,,F,,]3) ([D,,D,]2 [C,,C,]) | ([B,,,B,,]3 [A,,,A,,]3 | [^G,,,^G,,]3) [E,,E,]2 [D,,D,] | %126
 [C,,C,]3 [B,,,B,,]2 [A,,,A,,] | [D,,D,]6 | [G,,,G,,]2 z D,D,D, | D, z/ D,/D, D,D,D, | %130
 [G,,G,]2 z [F,,F,]2 z | [E,,E,]2 z [D,,D,]2 z | [^C,,^C,]2 z z2 z | z6 | z6 | z6 | z6 | z6 | z6 | %139
"^dim. senza rit. al fine." ([CE]3 [B,D]3 | [CE]3 [B,D]3 | [E,G,]3 [D,F,]3 | [C,E,]6 | %143
 .[G,,D,]2) z .[G,,,G,,]2 !fermata!z |] %144
V:6
 x6 | x3 [D,,,D,,]2 z | [G,,,G,,]2 z z3 | [G,,,G,,]2 z z3 | x6 | x6 | x6 | x6 | x6 | x6 | %10
 [G,,,G,,]2 z z3 | [G,,,G,,]2 z z3 | [G,,,G,,]2 z z3 | [G,,,G,,]2 z z3 | x6 | x6 | x6 | x6 | x6 | %19
 x6 | x6 | x6 | x6 | x6 | x6 | x6 | x6 | x6 | x6 | x6 | x6 | x6 | x6 | x6 | x6 | x6 | x6 | x6 | %38
 x6 | x6 | x6 | x6 | x6 | x6 | [G,,,G,,]3- [G,,,G,,]2 z | [G,,,G,,]3- [G,,,G,,]2 z | x6 | x6 | x6 | %49
 x6 | x6 | x6 | [G,,,G,,]2 z z3 | [G,,,G,,]2 z z3 | [G,,,G,,]2 z z3 | [G,,,G,,]2 z z3 | x6 | x6 | %58
 x6 | x6 | x6 | x6 | x6 | x6 | x6 | x6 | x6 | x6 | x6 | x6 | x6 | x6 | x6 | x6 | x6 | x6 | x6 | %77
 x6 | x6 | x6 | x6 | x6 | x6 | x6 | x6 | x6 | x6 | x6 | x6 | x6 | x6 | x6 | x6 | x6 | x6 | x6 | %96
 x6 | x6 | x6 | x6 | x6 | x6 | x6 | x6 | x6 | x6 | x6 | x6 | x6 | x6 | x6 | x6 | B,,6 | B,,6 | %114
 B,,6 | B,,6 | x6 | x6 | x6 | x6 | x6 | x6 | x6 | x6 | x6 | x6 | x6 | x6 | x3 z3 | %129
 [G,,,G,,]2 z z3 | x6 | x6 | x6 | x6 | x6 | x6 | x6 | x6 | x6 | x6 | x6 | x6 | x6 | x6 |] %144
V:7
 x6 | x6 | x6 | x6 | x6 | x6 | x3 [CE]3 | D3- D2 D- | DCB, [C-E]3 | C2 x4 | x6 | x6 | x6 | x6 | %14
 x6 | x6 | x6 | x6 | x6 | x6 | x6 | x6 | x6 | x6 | x6 | x6 | x6 | x6 | x6 | x6 | x6 | x6 | x6 | %33
 x6 | x6 | x6 | x6 | x3 [A,D]3 | x6 | x6 | x6 | x3 ^A3 | x6 | x6 | x6 | x6 | x6 | x6 | x3 [CE]3 | %49
 D3 D2 D- | DCB, C3- | C2 x4 | x6 | x6 | x6 | x6 | x6 | x6 | x6 | x6 | x6 | x6 | x6 | x6 | x6 | %65
 x6 | x6 | x6 | x6 | x6 | x6 | x6 | x6 | x6 | x6 | x6 | x6 | x6 | x6 | [A,D]3 [A,D]3 | x6 | x6 | %82
 x6 | x6 | x6 | x6 | [B,G]3 [B,^D]3 | x3 C2 D | x6 | x6 | x6 | x6 | x6 | %93
 !arpeggio![CE]3 !arpeggio![CE]3 | x6 | x6 | x6 | !arpeggio![CE]3 !arpeggio![EG]3 | x6 | x6 | x6 | %101
 !arpeggio![D=F]3 !arpeggio![DF]3 | x6 | x6 | x6 | !arpeggio![D=F]3 !arpeggio![FA]3 | x6 | x6 | %108
 x6 | x6 | x6 | x6 | x6 | x6 | x6 | EB,E- E2 x | x6 | x6 | x6 | x6 | x6 | G,3 [G,C]3 | x6 | x6 | %124
 x6 | x6 | x3 [EA]3 | x3 [Fc]3 | x6 | x6 | x6 | x6 | x6 | x6 | x6 | x6 | x6 | x6 | x6 | x6 | x6 | %141
 x6 | x6 | x6 |] %144

